icon-themes/breeze_svg/cmd/lc_graphicdialog.svg

<svg viewBox="0 0 24 24" xmlns="http://www.w3.org/2000/svg"><path d="m11 18c-.552285 0-1 .447715-1 1s.447715 1 1 1 1-.447715 1-1-.447715-1-1-1zm4 0c-.552285 0-1 .447715-1 1s.447715 1 1 1 1-.447715 1-1-.447715-1-1-1zm4 0c-.552285 0-1 .447715-1 1s.447715 1 1 1 1-.447715 1-1-.447715-1-1-1z" fill="#f47750"/><path d="m4 4v1 15h1 3 1v-3h2 4 4 1v-5-7-1h-15zm1 1h14v7 3l-4-4-4 4-1-1-4.84375 4.84375-.15625.15625zm3 1c-1.108 0-2 .892-2 2s.892 2 2 2 2-.892 2-2-.892-2-2-2z" fill="#4d4d4d"/></svg>

<svg xmlns="http://www.w3.org/2000/svg" viewBox="0 0 24 24">
 <path 
     style="fill:#f47750" 
     d="M 11 18 C 10.447715 18 10 18.447715 10 19 C 10 19.552285 10.447715 20 11 20 C 11.552285 20 12 19.552285 12 19 C 12 18.447715 11.552285 18 11 18 z M 15 18 C 14.447715 18 14 18.447715 14 19 C 14 19.552285 14.447715 20 15 20 C 15.552285 20 16 19.552285 16 19 C 16 18.447715 15.552285 18 15 18 z M 19 18 C 18.447715 18 18 18.447715 18 19 C 18 19.552285 18.447715 20 19 20 C 19.552285 20 20 19.552285 20 19 C 20 18.447715 19.552285 18 19 18 z "
     />
 <path 
     style="fill:#4d4d4d" 
     d="M 4 4 L 4 5 L 4 20 L 5 20 L 8 20 L 9 20 L 9 17 L 11 17 L 15 17 L 19 17 L 20 17 L 20 12 L 20 5 L 20 4 L 5 4 L 4 4 z M 5 5 L 19 5 L 19 12 L 19 15 L 15 11 L 11 15 L 10 14 L 5.15625 18.84375 L 5 19 L 5 5 z M 8 6 C 6.892 6 6 6.892 6 8 C 6 9.108 6.892 10 8 10 C 9.108 10 10 9.108 10 8 C 10 6.892 9.108 6 8 6 z "
     />
 </svg>
